X:250
T:Concertina Reel, The
M:C|
L:1/8
Q:200
S:THSP
R:reel
K:D
"D"A2FA BAFB|A2FA BAFA|"A"B2 cA BAcA|BAcA BAFB|
"D"A2FA BAFB|A2FA BAFE|FABc dedB|1 "A"AFEF "D"DEFG:|2 "A"AFEF "D"D3B||:"
D
"Ad~d2 Ad~d2|AddA
BAFA|"A"B2 cA BAcA|BAcA BAFB|"D"Ad~d2 Ad~d2|Addc d2dB|A2FA BcdB|1 "A"AF
EF "D"D3B:|2 "A"AFEF "D"DEFG|]
